X: 26718
T: Mike MacDougall's
R: jig
M: 6/8
K: Gmajor
|:FE|D2 D GAB|BAB edB|BdB GAB|c2 B AGE|
DB,/C/D GAB|BAB def|g2 g ege|dBA G:|
|:B/c/d|gag edB|dgb agf|g2 e dBd|gab a2 b|
age dBd|g2 g aga|bag e/f/ge|dBA G:|

